static/fa/svgs/solid/arrow-up-right-from-square.svg

<svg xmlns="http://www.w3.org/2000/svg" viewBox="0 0 448 512"><!--! Font Awesome Free 6.1.1 by @fontawesome - https://fontawesome.com License - https://fontawesome.com/license/free (Icons: CC BY 4.0, Fonts: SIL OFL 1.1, Code: MIT License) Copyright 2022 Fonticons, Inc.--><path d="M256 64c0-17.67 14.3-32 32-32h127.1c5.2 0 9.4.86 13.1 2.43 2.9 1.55 7.3 3.84 10.4 6.87 0 .05 0 .1.1.14 6.2 6.22 8.4 14.34 9.3 22.46V192c0 17.7-14.3 32-32 32s-32-14.3-32-32v-50.7L214.6 310.6c-12.5 12.5-32.7 12.5-45.2 0s-12.5-32.7 0-45.2L338.7 96H288c-17.7 0-32-14.33-32-32zM0 128c0-35.35 28.65-64 64-64h96c17.7 0 32 14.33 32 32 0 17.7-14.3 32-32 32H64v288h288v-96c0-17.7 14.3-32 32-32s32 14.3 32 32v96c0 35.3-28.7 64-64 64H64c-35.35 0-64-28.7-64-64V128z"/></svg>

<svg xmlns="http://www.w3.org/2000/svg" viewBox="0 0 448 512"><!--! Font Awesome Free 6.1.1 by @fontawesome - https://fontawesome.com License - https://fontawesome.com/license/free (Icons: CC BY 4.0, Fonts: SIL OFL 1.1, Code: MIT License) Copyright 2022 Fonticons, Inc. --><path d="M256 64C256 46.33 270.3 32 288 32H415.1C415.1 32 415.1 32 415.1 32C420.3 32 424.5 32.86 428.2 34.43C431.1 35.98 435.5 38.27 438.6 41.3C438.6 41.35 438.6 41.4 438.7 41.44C444.9 47.66 447.1 55.78 448 63.9C448 63.94 448 63.97 448 64V192C448 209.7 433.7 224 416 224C398.3 224 384 209.7 384 192V141.3L214.6 310.6C202.1 323.1 181.9 323.1 169.4 310.6C156.9 298.1 156.9 277.9 169.4 265.4L338.7 96H288C270.3 96 256 81.67 256 64V64zM0 128C0 92.65 28.65 64 64 64H160C177.7 64 192 78.33 192 96C192 113.7 177.7 128 160 128H64V416H352V320C352 302.3 366.3 288 384 288C401.7 288 416 302.3 416 320V416C416 451.3 387.3 480 352 480H64C28.65 480 0 451.3 0 416V128z"/></svg>
